img/arrow-41.svg

<svg fill="none" height="13" viewBox="0 0 16 13" width="16" xmlns="http://www.w3.org/2000/svg"><path d="m15.6446 7.09866c.3306-.33063.3306-.86669 0-1.19732l-5.3879-5.387899c-.33068-.330629-.86673-.330629-1.19736 0-.33063.330628-.33063.866679 0 1.197309l4.78926 4.78925-4.78926 4.7892c-.33063.3307-.33063.8667 0 1.1974.33063.3306.86668.3306 1.19736 0zm-14.14474-1.44529c-.46758 0-.846626.37905-.846626.84663s.379046.84663.846626.84663zm13.54604 0h-13.54604v1.69326h13.54604z" fill="#0080ff"/></svg>

<svg width="16" height="13" viewBox="0 0 16 13" fill="none" xmlns="http://www.w3.org/2000/svg">
<path d="M15.6446 7.09866C15.9752 6.76803 15.9752 6.23197 15.6446 5.90134L10.2567 0.513441C9.92602 0.182812 9.38997 0.182812 9.05934 0.513441C8.72871 0.844069 8.72871 1.38012 9.05934 1.71075L13.8486 6.5L9.05934 11.2892C8.72871 11.6199 8.72871 12.1559 9.05934 12.4866C9.38997 12.8172 9.92602 12.8172 10.2567 12.4866L15.6446 7.09866ZM1.49986 5.65337C1.03228 5.65337 0.653234 6.03242 0.653234 6.5C0.653234 6.96758 1.03228 7.34663 1.49986 7.34663V5.65337ZM15.0459 5.65337L1.49986 5.65337V7.34663L15.0459 7.34663V5.65337Z" fill="#0080FF"/>
</svg>
